!!!!SEGMENT: pl-sa--197-a-vi-1--008_anonim--requiem-es-agnus-dei.krn
!!!cenid: 17xx:1679
!!!COM: Anonim
!!!COM-rismid: pe30004985
!!!CDT:
!!!CNT:
!!!OPR: Requiem Es
!!!OTL: Agnus Dei
!!!OMV: 008
!!!PDT:
!!!AGN: Sacred; Requiem
!!!SMS-siglum: PL-SA
!!!SMS-shelfmark: 197/A VI 1
!!!SMS-shelfwork: 001-008 M
!!!SMS-variant:
!!!SMS-altvar:
!!!NIFC-rismid: 1001070179
!!!URL-scan: http://bc.bdsandomierz.pl/dlibra/publication/1533/edition/1501/content
!!!ONB-nifc: UWAGA: części Requiem: 1. Requiem, 2. Kirie, 3. Dies irae, 4. Domine Jesu Christe, 5. Sanctus, 6. Osanna, 7. Benedictus, 8. Agnus Dei, 9. Lux aeterna
!!!key: E-
**kern	**text	**kern	**text	**kern	**text
*part3	*part3	*part2	*part2	*part1	*part1
*staff3	*staff3	*staff2	*staff2	*staff1	*staff1
*IGcoro	*	*IGcoro	*	*IGcoro	*
*ICvox	*	*ICvox	*	*ICvox	*
*Ibass	*	*Ialto	*	*Isoprn	*
*I"Baſſo	*	*I"Alto	*	*I"Canto:.	*
*I'B	*	*I'A	*	*I'S	*
*clefF4	*	*clefC3	*	*clefC1	*
*k[b-3b-e-a-3a-]	*	*k[e-b-a-]	*	*k[b-e-a-]	*
*E-:	*	*E-:	*	*E-:	*
*M4/4	*	*M4/4	*	*M4/4	*
*met(c)	*	*met(c)	*	*met(C.)	*
*2\right	*	*2\right	*	*2\right	*
*all\right	*	*all\right	*	*all\right	*
=1	=1	=1	=1	=1	=1
4E-\	A-	4g\	A-	4ee-\	A-
!	!	!LO:TX:t=P:problem:ósemka poprawiona na ćwierćnutę	!	!	!
4BB-/	-gnus	4f\	-gnus	4dd\	-gnus
4E-\	De-	4g\	De-	4ee-\	De-
4E-\	-i	4g\	-i	4ee-\	-i
=2	=2	=2	=2	=2	=2
8r	.	2r	.	2r	.
8E-\	qvi	.	.	.	.
8E-\	to[l]-	.	.	.	.
16F\	-lis	.	.	.	.
16G\	pec-	.	.	.	.
8A-\	-ca-	8r	.	8r	.
8A-\	-ta	8e-\	qvi	8cc\	qvi
!	!	!	!	!LO:N:vis=16	!
(8A-\L	mun-	8e-\	to[l]-	8cc\	tol-
8G\J)	.	16f\	-lis	16dd\	-lis
.	.	16g\	pec-	16ee-\	pe[c]-
=3	=3	=3	=3	=3	=3
8F\	-di	8a-\	-Ca-	8ff\	-ca-
8F\	qvi	8a-\	-ta	8ff\	-ta
8F\	to[l]-	8a-\L	mun-	(8ff\L	pec-
16G\	-lis	16g\L	.	8ee-\J)	.
16A-\	pec-	16f\JJ	.	.	.
8B-\	-ca-	8f\	-di	8dd\	-ca-
8E-\	-ta	8g\	qvi	8ee-,<\	-ta
!LO:TX:t=P:problem:mixed beam	!	!	!	!	!
8F\L	mun-	4f\	to[l]-	4cc\	mun-
8FF/J	.	.	.	.	.
=4	=4	=4	=4	=4	=4
2BB-/	-di	8f\	-lis	8dd\	-di
.	.	8d\L	Do-	8b-\L	do-
.	.	8e-\	.	8cc\	.
.	.	8f\J	.	8dd\J	.
2BB-/	do-	8g\L	.	8ee-\L	.
.	.	8e-\	.	8cc\J	.
.	.	8f\	.	8dd\L	.
.	.	8g\J	.	16ee-\L	.
.	.	.	.	16dd\JJ	.
=5	=5	=5	=5	=5	=5
2AAn/	-na	8f\	.	8cc\	-na
.	.	8f\	-na	8cc\	e-
.	.	8e-\	e-	8dd\	.
.	.	8e-\	-is	8b-\	-is
!LO:LB:g=original	!	!	!	!LO:LB:g=original	!
8BB-/	e-	4.e-\	Re-	4.b-\	Re-
8BB-/	-is	.	.	.	.
8.BB-/	re-	.	.	.	.
.	.	8d\	-qvi-	8b-\	-qvi-
16BB-/	-qvi-	.	.	.	.
=6	=6	=6	=6	=6	=6
!	!	!LO:LB:g=original	!	!	!
4E-\	-em	4e-\	-em	4b-\	-em
8E-\	A-	4r	.	4r	.
8E-\	-gnus	.	.	.	.
16A-\LL	de-	2r	.	2r	.
16G\	.	.	.	.	.
16A-\	.	.	.	.	.
16B-\JJ	.	.	.	.	.
(16A-\LL	-i	.	.	.	.
16B-\JJ)	.	.	.	.	.
(16A-\LL	qvi	.	.	.	.
16G\JJ)	.	.	.	.	.
=7	=7	=7	=7	=7	=7
!	!	!	!	!LO:TX:b:t=Bas.	!
4F\	to[l]-	00r	.	00r	.
8F\	-lis	.	.	.	.
8F\	qvi	.	.	.	.
16B-\LL	to[l]-	.	.	.	.
16A-\	.	.	.	.	.
16B-\	.	.	.	.	.
16c\JJ	.	.	.	.	.
(16B-\LL	-lis	.	.	.	.
16c\JJ)	.	.	.	.	.
(16B-\LL	pec-	.	.	.	.
16A-\JJ)	.	.	.	.	.
=8	=8	=8	=8	=8	=8
4G\	-ca-	.	.	.	.
8G\	-ta	.	.	.	.
8G\	qvi	.	.	.	.
16c\LL	to[l]-	.	.	.	.
16B-\	.	.	.	.	.
16c\	.	.	.	.	.
16d\JJ	.	.	.	.	.
(16c\LL	-lis	.	.	.	.
16d\JJ)	.	.	.	.	.
(16c\LL	pec-	.	.	.	.
16B-\JJ)	.	.	.	.	.
=9	=9	=9	=9	=9	=9
!LO:LB:g=original	!	!	!	!	!
8An\	-Ca-	.	.	.	.
8B-\	-ta	.	.	.	.
(8E-\L	mun-	.	.	.	.
8F\J)	.	.	.	.	.
4BB-/	-di	.	.	.	.
8D/	do-	.	.	.	.
8D/	-na	.	.	.	.
=10	=10	=10	=10	=10	=10
(8E-\L	do-	.	.	.	.
8F\J)	.	.	.	.	.
(8G\L	-na	.	.	.	.
8An\J)	.	.	.	.	.
8B-\	e-	.	.	.	.
8E-\	-is	.	.	.	.
8.F\	Re-	.	.	.	.
16F\	-qvi-	.	.	.	.
=11	=11	=11	=11	=11	=11
4BB-/	-em	4f\	A-	4dd\	A-
8F\	A-	4f\	-gnus	4cc\	-gnus
8F\	-gnus	.	.	.	.
4B-\	De-	4f\	De-	4dd\	De-
4B-\	-i	4f\	-i	4dd\	-i
=12	=12	=12	=12	=12	=12
2r	.	8r	.	8r	.
.	.	8d\	qvi	8b-\	qvi
.	.	8d\	to[l]-	8b-\	tol-
.	.	16e-\	-lis	16cc\	-lis
.	.	16f\	pec-	16dd\	pec-
8r	.	8g\	-Ca-	8ee-\	-ca-
8E-\	qvi	8g\	-ta	8ee-\	-ta
8E-\	to[l]-	(8g\L	mun-	(8ee-\L	mun-
16F\	-lis	8f\J)	.	16dd\L	.
16G\	pec-	.	.	16ee-\JJ)	.
=13	=13	=13	=13	=13	=13
8A-\	-ca-	8e-\	-di	8cc,<\	-di
8A-\	-ta	8e-\	qvi	8cc\	qvi
(8A-\L	mun-	8e-\	to[l]-	8cc\	tol-
8G\J)	.	16f\	-lis	16dd\	-lis
!	!	!LO:SIC:l:v:t=qui	!	!	!
.	.	16g\	pe	16ee-\	pec-
!LO:LB:g=original	!	!	!	!	!
8F\	-di	8a-\	to[l]-	8ff\	-ca-
8F\	qvi	16a-\	-lis	16ff\	-ta
.	.	16a-\	pec-	16ff\	pec-
8F\	to[l]-	(8a-\L	-ca-	(8ff\L	-ca-
16G\	-lis	8g\J)	.	8ee-\J)	-ta
16A-\	pec-	.	.	.	.
=14	=14	=14	=14	=14	=14
8B-\	-Ca-	(8f\L	-ta	(8dd\L	mun-
8E-\	-ta	8g\J)	.	8ee-\J)	.
!	!	!	!	!LO:LB:g=original	!
4BB-/	mun-	4f\	mun-	(8ee-\L	-di
.	.	.	.	8dd\J)	.
4E-\	-di	8g\	-di	8ee-\	do-
.	.	8e-\L	Do-	(8g\L	-na
8E-\	do-	8f\J	.	8a-\J)	.
8E-\	-na	8g\	-na	8b-\	e-
=15	=15	=15	=15	=15	=15
!	!	!LO:LB:g=original	!	!	!
8E-\	e-	8a-\	e-	8cc\	-is
8E-\	-is	8g\	-is	8b-\	Re-
8.E-\	Re-	8a-\	re-	8cc\	-qvi-
.	.	8f\	-qvi-	(16dd-X\LL	-em
16E-\	-qvi-	.	.	16cc\JJ)	.
4E-\	-em	4g\	-em	4b-\	.
8C/	Sem-	8f\	Sem-	8an\	Sem-
8C/	-pi-	8f\	-pi-	8a\	-pi-
=16	=16	=16	=16	=16	=16
2BB-/	-ter-	4f\	-ter-	8b-\L	-ter-
.	.	.	.	8a-\	.
.	.	(8e-\L	.	8g\	.
.	.	8d\J)	.	8f\J	.
2E-\	-nam	2e-\	-nam	2g/	-nam
!LO:TX:t=P:problem:pojedyncza kreska taktowa	!	!	!	!	!
==	==	==	==	==	==
*-	*-	*-	*-	*-	*-
!!!system-decoration: [(s1,s2,s3)]
!!!ENC: Katarzyna Serwa
!!!END: 2020-12-28
!!!AIN: 1 alto 1 bass 1 soprn
!!!ENC: Krzysztof Stępień
!!!END: 2022-03-31
!!!RDF**kern: > = above
!!!RDF**kern: < = below
